src/assets/icon-plus.svg

<?xml version="1.0" encoding="UTF-8" standalone="no" ?>
<!DOCTYPE svg PUBLIC "-//W3C//DTD SVG 1.1//EN" "http://www.w3.org/Graphics/SVG/1.1/DTD/svg11.dtd">
<svg xmlns="http://www.w3.org/2000/svg" xmlns:xlink="http://www.w3.org/1999/xlink" version="1.1" width="1080" height="1080" viewBox="0 0 1080 1080" xml:space="preserve">
<desc>Created with Fabric.js 4.2.0</desc>
<defs>
</defs>
<rect x="0" y="0" width="100%" height="100%" fill="transparent"></rect>
<g transform="matrix(1 0 0 1 540 540)" id="0019d9bb-de88-45ee-be9a-706055380a6b"  >
<rect style="stroke: none; stroke-width: 1; stroke-dasharray: none; stroke-linecap: butt; stroke-dashoffset: 0; stroke-linejoin: miter; stroke-miterlimit: 4; fill: rgb(255,255,255); fill-opacity: 0; fill-rule: nonzero; opacity: 1;" vector-effect="non-scaling-stroke"  x="-540" y="-540" rx="0" ry="0" width="1080" height="1080" />
</g>
<g transform="matrix(1 0 0 1 540 540)" id="734b6f58-4a52-4ffb-8576-7b45336c32c9"  >
</g>
<g transform="matrix(103.48 0 0 103.48 540 540)" id="4aeefc37-6aa7-4dd3-b6e3-425ca5ad3aa5"  >
<path style="stroke: rgb(0,0,0); stroke-width: 0; stroke-dasharray: none; stroke-linecap: butt; stroke-dashoffset: 0; stroke-linejoin: miter; stroke-miterlimit: 4; fill: rgb(87,172,220); fill-rule: nonzero; opacity: 1;" vector-effect="non-scaling-stroke"  transform=" translate(-5.02, -5.02)" d="M 6.313 10.023 L 6.313 6.313 L 10.023 6.313 L 10.023 3.7329999999999997 L 6.313 3.7329999999999997 L 6.313 0.023 L 3.7329999999999997 0.023 L 3.7329999999999997 3.733 L 0.023 3.733 L 0.023 6.313000000000001 L 3.733 6.313000000000001 L 3.733 10.023 z" stroke-linecap="round" />
</g>
</svg>

<svg width="11" height="11" xmlns="http://www.w3.org/2000/svg"><path d="M6.313 10.023v-3.71h3.71v-2.58h-3.71V.023h-2.58v3.71H.023v2.58h3.71v3.71z" fill="#7C5DFA" fill-rule="nonzero"/></svg>
